dist/img/animals.svg

<svg width="64" height="64" fill="none" xmlns="http://www.w3.org/2000/svg"><path opacity=".8" d="M8 29h6v19H8V29z" fill="#216E7A"/><path d="M56.427 36.815c-.937-.693-2.188-.895-3.435-.55l-15.289 4.227c.188-.464.297-.969.297-1.501A4 4 0 0034 35h-9.377c-.666-1-2.362-4-4.623-4h-4v-1c0-1.654-1.346-3-3-3H9c-1.654 0-3 1.346-3 3v17c0 1.654 1.346 3 3 3h4c1.654 0 3-1.345 3-3v-.752l12.139 8.202A9.046 9.046 0 0033.214 56a9.09 9.09 0 004.742-1.331l18.173-11.101A3.926 3.926 0 0058 40.235v-.313a3.843 3.843 0 00-1.573-3.107zM14 47c0 .552-.449 1-1 1h-1v-4h-2v4H9c-.551 0-1-.448-1-1V30c0-.552.449-1 1-1h4c.551 0 1 .449 1 1v17zm42-6.765c0 .66-.35 1.283-.913 1.627l-18.173 11.1a7.093 7.093 0 01-7.654-.169L16 43.835V33h4c1.059 0 2.469 2.034 3.088 3.409l.266.591H34c1.103 0 2 .893 2 1.99 0 1.108-.897 2.01-2 2.01H24v2h12l17.524-4.807c.641-.178 1.28-.093 1.71.229.487.361.766.908.766 1.5v.313zM39 30c2.631 0 13-6.559 13-15 0-3.859-3.14-7-7-7a7.003 7.003 0 00-6 3.397A7.003 7.003 0 0033 8c-3.86 0-7 3.141-7 7 0 8.441 10.369 15 13 15zm-6-20c2.757 0 5 2 5 5h2c0-3 2.243-5 5-5s5 2.243 5 5c0 7.563-9.679 13-11 13-1.321 0-11-5.437-11-13 0-2.757 2.243-5 5-5z" fill="#216E7A"/></svg>

<svg width="64" height="64" viewBox="0 0 64 64" fill="none" xmlns="http://www.w3.org/2000/svg">
<path opacity="0.8" d="M8 29H14V48H8V29Z" fill="#216E7A"/>
<path d="M56.427 36.815C55.49 36.122 54.239 35.92 52.992 36.265L37.703 40.492C37.891 40.028 38 39.523 38 38.991C38 36.79 36.206 35 34 35H24.623C23.957 34 22.261 31 20 31H16V30C16 28.346 14.654 27 13 27H9C7.346 27 6 28.346 6 30V47C6 48.654 7.346 50 9 50H13C14.654 50 16 48.655 16 47V46.248L28.139 54.45C29.663 55.482 31.437 56 33.214 56C34.856 56 36.501 55.558 37.956 54.669L56.129 43.568C57.283 42.865 58 41.587 58 40.235V39.922C58 38.691 57.427 37.559 56.427 36.815ZM14 47C14 47.552 13.551 48 13 48H12V44H10V48H9C8.449 48 8 47.552 8 47V30C8 29.448 8.449 29 9 29H13C13.551 29 14 29.449 14 30V47ZM56 40.235C56 40.895 55.65 41.518 55.087 41.862L36.914 52.962C34.549 54.405 31.545 54.34 29.26 52.793L16 43.835V33H20C21.059 33 22.469 35.034 23.088 36.409L23.354 37H34C35.103 37 36 37.893 36 38.99C36 40.098 35.103 41 34 41H24V43H34H36L53.524 38.193C54.165 38.015 54.804 38.1 55.234 38.422C55.721 38.783 56 39.33 56 39.922V40.235Z" fill="#216E7A"/>
<path d="M39 30C41.631 30 52 23.441 52 15C52 11.141 48.86 8 45 8C42.457 8 40.226 9.363 39 11.397C37.774 9.363 35.543 8 33 8C29.14 8 26 11.141 26 15C26 23.441 36.369 30 39 30ZM33 10C35.757 10 38 12 38 15H40C40 12 42.243 10 45 10C47.757 10 50 12.243 50 15C50 22.563 40.321 28 39 28C37.679 28 28 22.563 28 15C28 12.243 30.243 10 33 10Z" fill="#216E7A"/>
</svg>
